X:3234
T:Polska i Cm ur Pontus Schwalbes notbok
B:Pontus Schwalbes notbok, nr 51
R:Polska
O:Björkvik, Södermanland
M:3/4
L:1/16
Z:Nils L
K:Cm
G2g2 g4 e4 | g2ag fede c4 | G2g2 g2ag fede | dc=Bc c2d2 B2G2 | 
G2g2 g4 e4 | g2ag fede c4 | g2>b2 =ag^fa g2>e2 | dc=Bd c4 C4 ::
gag^f g2b2 g2e2 | fgf=e f2a2 f2d2 | fede c2e2 fedc | =BcdB c2>d2 B2G2 | 
gag^f g2b2 g2e2 | fgf=e f2a2 f2d2 | g2>b2 =ag^fa g2>e2 | dc=Bd c4 C4 :| 
(:musicend:)
(:music:)
%%abc-charset utf-8
